X:3
T: WAS IST DES DEUTSCHEN VATERLAND
N: B0002
O: Europa, Mitteleuropa, Deutschland
R: politisch, national, Vaterlands - Lied
M: 4/4
L: 1/16
K: C
G,2A,2B,2 | C6G,2G,6F,2 | F,4E,4z4
C4 | C3A,A,4z4C4 | C3G,G,4z4
C4 | B,6B,2C6C2 | D6B,2G,4
G,4 | C6C2D6D2 | E6C2C4
G,4 | E6D2F2E2D2C2 | B,4A,4z2
A,2C2A,2 | G,2C2C2E2E3DC2B,2 | C8z4
G,4 | E6D2F2E2D2C2 | B,4A,4z2
A,2C2A,2 | G,2C2C2E2E3DC2B,2 | C8z2

